svg/fluentui-system-icons/ic_fluent_blur_28_regular.svg

<svg width="28" height="28" viewBox="0 0 28 28" fill="none" xmlns="http://www.w3.org/2000/svg">
<path d="M3 14C3 7.92487 7.92487 3 14 3C16.0238 3 17.9199 3.54651 19.5488 4.5H14C8.75329 4.5 4.5 8.75329 4.5 14C4.5 19.2467 8.75329 23.5 14 23.5V23H20.3262C18.5368 24.2601 16.3548 25 14 25C7.92487 25 3 20.0751 3 14ZM20.9826 5.5C21.5305 5.95058 22.034 6.45309 22.4857 7H14V5.5H20.9826ZM24.0404 9.5C23.8057 8.97706 23.5313 8.47578 23.2211 8H14V9.5H24.0404ZM24.4315 10.5C24.5944 10.9858 24.7243 11.4866 24.8186 12H14V10.5H24.4315ZM25 14C25 13.6629 24.9848 13.3294 24.9552 13H14V14.5H24.9888C24.9963 14.3343 25 14.1676 25 14ZM24.8986 15.5C24.8288 16.0121 24.7237 16.5129 24.5859 17H14V15.5H24.8986ZM23.5284 19.5C23.8051 19.0216 24.0469 18.5204 24.2501 18H14V19.5H23.5284ZM22.875 20.5C22.4792 21.0395 22.0354 21.5416 21.5499 22H14V20.5H22.875Z" fill="#212121"/>
</svg>

<svg xmlns="http://www.w3.org/2000/svg" width="28" height="28"><path d="M3 14C3 7.925 7.925 3 14 3c2.024 0 3.92.547 5.549 1.5H14a9.5 9.5 0 1 0 0 19V23h6.326A10.95 10.95 0 0 1 14 25C7.925 25 3 20.075 3 14Zm17.983-8.5c.547.45 1.051.953 1.503 1.5H14V5.5h6.983Zm3.057 4a10.974 10.974 0 0 0-.819-1.5H14v1.5h10.04Zm.392 1c.162.486.292.987.387 1.5H14v-1.5h10.431ZM25 14c0-.337-.015-.67-.045-1H14v1.5h10.989c.007-.166.011-.332.011-.5Zm-.101 1.5c-.07.512-.175 1.013-.313 1.5H14v-1.5h10.899Zm-1.37 4c.276-.478.518-.98.721-1.5H14v1.5h9.528Zm-.654 1c-.396.54-.84 1.042-1.325 1.5H14v-1.5h8.875Z"/></svg>
